src/svg/icons/shortcuts-icon.svg

<svg width="20px" height="20px" viewBox="0 0 20 20">
  <g stroke="none" stroke-width="1" fill="none" fill-rule="evenodd">
    <path
      d="M17,1 L3,1 C1.8954305,1 1,1.8954305 1,3 L1,17 C1,18.1045695 1.8954305,19 3,19 L17,19 C18.1045695,19 19,18.1045695 19,17 L19,3
        C19,1.8954305 18.1045695,1 17,1 Z M3.25,3 L16.75,3 C16.8880712,3 17,3.11192881 17,3.25 L17,15.75 C17,15.8880712 16.8880712,16
        16.75,16 L3.25,16 C3.11192881,16 3,15.8880712 3,15.75 L3,3.25 C3,3.11192881 3.11192881,3 3.25,3 Z"
      class="fill-gray-700 dark:fill-gray-300"
      fill-rule="nonzero"
    ></path>
    <path
      d="M12.6065441,14 C13.6579232,14 14.5,13.1419285 14.5,12.103467 C14.5,11.0552546 13.6530557,10.2264355 12.6114116,10.2215601
        L11.9396971,10.2166847 L11.9396971,8.78331528 L12.6114116,8.77843987 C13.6530557,8.76868906 14.5,7.93986999 14.5,6.89165764
        C14.5,5.8531961 13.6579232,5 12.6065441,5 C11.5697674,5 10.7179557,5.85807151 10.7179557,6.89165764 L10.7179557,7.54983749
        L9.28204435,7.54983749 L9.28204435,6.89165764 C9.28204435,5.85807151 8.43023256,5 7.39345592,5 C6.3420768,5 5.5,5.8531961
        5.5,6.89165764 C5.5,7.93986999 6.34694429,8.76868906 7.38858843,8.77843987 L8.06030287,8.78331528 L8.06030287,10.2166847
        L7.38858843,10.2215601 C6.34694429,10.2264355 5.5,11.0552546 5.5,12.103467 C5.5,13.1419285 6.3420768,14 7.39345592,14 C8.43023256,14
        9.28204435,13.1370531 9.28204435,12.103467 L9.28204435,11.4452871 L10.7179557,11.4452871 L10.7179557,12.103467 C10.7179557,13.1370531
        11.5697674,14 12.6065441,14 Z M8.05543537,7.5595883 L7.43726339,7.5595883 C7.03812872,7.5595883 6.74121147,7.26218852 6.74121147,6.89653304
        C6.74121147,6.53087757 7.03326122,6.2383532 7.39345592,6.2383532 C7.74878313,6.2383532 8.05543537,6.54062839 8.05543537,6.9404117
        L8.05543537,7.5595883 Z M12.5627366,7.5595883 L11.9445646,7.5595883 L11.9445646,6.9404117 C11.9445646,6.54062839 12.2512169,6.2383532
        12.6065441,6.2383532 C12.9716063,6.2383532 13.263656,6.53087757 13.263656,6.89653304 C13.263656,7.26218852 12.9618713,7.5595883
        12.5627366,7.5595883 Z M10.7179557,10.2166847 L9.28691184,10.2166847 L9.28691184,8.77843987 L10.7179557,8.77843987 L10.7179557,10.2166847 Z
        M7.39345592,12.7567714 C7.03326122,12.7567714 6.74121147,12.464247 6.74121147,12.0985915 C6.74121147,11.7329361 7.03812872,11.4355363
        7.43726339,11.4355363 L8.05543537,11.4355363 L8.05543537,12.0547129 C8.05543537,12.4544962 7.74878313,12.7567714 7.39345592,12.7567714 Z
        M12.6065441,12.7567714 C12.2512169,12.7567714 11.9445646,12.4544962 11.9445646,12.0547129 L11.9445646,11.4355363 L12.5627366,11.4355363
        C12.9618713,11.4355363 13.263656,11.7329361 13.263656,12.0985915 C13.263656,12.464247 12.9716063,12.7567714 12.6065441,12.7567714 Z"
      class="fill-gray-700 dark:fill-gray-300"
      fill-rule="nonzero"
    ></path>
  </g>
</svg>

<svg viewBox="0 0 20 20" xmlns="http://www.w3.org/2000/svg" fill="currentColor">
  <path
    d="M17 1H3a2 2 0 00-2 2v14a2 2 0 002 2h14a2 2 0 002-2V3a2 2 0 00-2-2zM3.25 3h13.5a.25.25 0 01.25.25v12.5a.25.25 0 01-.25.25H3.25a.25.25 0 01-.25-.25V3.25A.25.25 0 013.25 3z" />
  <path
    d="M12.607 14a1.897 1.897 0 001.893-1.897 1.884 1.884 0 00-1.889-1.881l-.671-.005V8.783l.671-.005A1.89 1.89 0 0014.5 6.892 1.893 1.893 0 0012.607 5a1.901 1.901 0 00-1.889 1.892v.658H9.282v-.658A1.901 1.901 0 007.393 5 1.893 1.893 0 005.5 6.892a1.89 1.89 0 001.889 1.886l.671.005v1.434l-.671.005A1.884 1.884 0 005.5 12.103C5.5 13.142 6.342 14 7.393 14a1.906 1.906 0 001.889-1.897v-.658h1.436v.658c0 1.034.852 1.897 1.889 1.897zM8.055 7.56h-.618c-.399 0-.696-.298-.696-.663 0-.366.292-.659.652-.659.356 0 .662.303.662.702v.62zm4.508 0h-.618v-.62c0-.4.306-.702.662-.702.365 0 .657.293.657.659 0 .365-.302.663-.701.663zm-1.845 2.657H9.287V8.778h1.431v1.439zm-3.325 2.54a.654.654 0 01-.652-.658c0-.366.297-.663.696-.663h.618v.619c0 .4-.306.702-.662.702zm5.214 0c-.356 0-.662-.303-.662-.702v-.62h.618c.399 0 .7.298.7.664a.655.655 0 01-.656.658z" />
</svg>
